src/images/gerb/izhevsk.svg

<svg width="54" height="64" viewBox="0 0 54 64" fill="none" xmlns="http://www.w3.org/2000/svg">
<g clip-path="url(#clip0_659_28921)">
<path fill-rule="evenodd" clip-rule="evenodd" d="M53.8633 0.265625H27.3073V64.0001C28.4512 61.5705 29.5423 59.1093 33.1496 58.1577H48.0209C50.5335 57.7656 53.1965 55.3099 53.8633 52.3154V0.265625Z" fill="#3598D4"/>
<path fill-rule="evenodd" clip-rule="evenodd" d="M0.75061 0.265625H27.3066V64.0001C26.1627 61.5705 25.0716 59.1093 21.4643 58.1577H6.59293C4.08037 57.7656 1.41737 55.3099 0.75061 52.3154V0.265625Z" fill="white"/>
<path fill-rule="evenodd" clip-rule="evenodd" d="M17.0538 43.2864C17.0538 43.7832 16.651 44.186 16.1542 44.186C15.6573 44.186 15.2545 43.7832 15.2545 43.2864C15.2545 42.7895 15.6573 42.3867 16.1542 42.3867C16.651 42.3867 17.0538 42.7895 17.0538 43.2864Z" fill="#EA1D28"/>
<path fill-rule="evenodd" clip-rule="evenodd" d="M24.0499 44.3503C24.0499 44.8472 23.6471 45.25 23.1503 45.25C22.6534 45.25 22.2506 44.8472 22.2506 44.3503C22.2506 43.8535 22.6534 43.4507 23.1503 43.4507C23.6471 43.4507 24.0499 43.8535 24.0499 44.3503Z" fill="#EA1D28"/>
<path fill-rule="evenodd" clip-rule="evenodd" d="M19.255 44.6855C19.255 45.1824 18.8522 45.5852 18.3553 45.5852C17.8585 45.5852 17.4557 45.1824 17.4557 44.6855C17.4557 44.1887 17.8585 43.7859 18.3553 43.7859C18.8522 43.7859 19.255 44.1887 19.255 44.6855Z" fill="#EA1D28"/>
<path fill-rule="evenodd" clip-rule="evenodd" d="M21.5694 43.0759C21.5694 43.5728 21.1666 43.9755 20.6698 43.9755C20.1729 43.9755 19.7701 43.5728 19.7701 43.0759C19.7701 42.579 20.1729 42.1763 20.6698 42.1763C21.1666 42.1763 21.5694 42.579 21.5694 43.0759Z" fill="#EA1D28"/>
<path fill-rule="evenodd" clip-rule="evenodd" d="M19.1768 41.8354C19.1768 42.3323 18.7741 42.7351 18.2772 42.7351C17.7803 42.7351 17.3776 42.3323 17.3776 41.8354C17.3776 41.3386 17.7803 40.9358 18.2772 40.9358C18.7741 40.9358 19.1768 41.3386 19.1768 41.8354Z" fill="#EA1D28"/>
<path fill-rule="evenodd" clip-rule="evenodd" d="M21.6358 48.7095C21.6358 49.2063 21.233 49.6091 20.7362 49.6091C20.2393 49.6091 19.8365 49.2063 19.8365 48.7095C19.8365 48.2126 20.2393 47.8098 20.7362 47.8098C21.233 47.8098 21.6358 48.2126 21.6358 48.7095Z" fill="#EA1D28"/>
<path fill-rule="evenodd" clip-rule="evenodd" d="M24.0147 49.9502C24.0147 50.447 23.612 50.8498 23.1151 50.8498C22.6182 50.8498 22.2155 50.447 22.2155 49.9502C22.2155 49.4533 22.6182 49.0505 23.1151 49.0505C23.612 49.0505 24.0147 49.4533 24.0147 49.9502Z" fill="#EA1D28"/>
<path fill-rule="evenodd" clip-rule="evenodd" d="M24.0147 47.1335C24.0147 47.6304 23.612 48.0332 23.1151 48.0332C22.6182 48.0332 22.2155 47.6304 22.2155 47.1335C22.2155 46.6367 22.6182 46.2339 23.1151 46.2339C23.612 46.2339 24.0147 46.6367 24.0147 47.1335Z" fill="#EA1D28"/>
<path fill-rule="evenodd" clip-rule="evenodd" d="M21.5694 45.9599C21.5694 46.4568 21.1666 46.8596 20.6698 46.8596C20.1729 46.8596 19.7701 46.4568 19.7701 45.9599C19.7701 45.4631 20.1729 45.0603 20.6698 45.0603C21.1666 45.0603 21.5694 45.4631 21.5694 45.9599Z" fill="#EA1D28"/>
<path fill-rule="evenodd" clip-rule="evenodd" d="M19.255 47.5022C19.255 47.999 18.8522 48.4018 18.3553 48.4018C17.8585 48.4018 17.4557 47.999 17.4557 47.5022C17.4557 47.0053 17.8585 46.6025 18.3553 46.6025C18.8522 46.6025 19.255 47.0053 19.255 47.5022Z" fill="#EA1D28"/>
<path fill-rule="evenodd" clip-rule="evenodd" d="M36.9084 43.2668C36.9084 43.7637 37.3111 44.1665 37.808 44.1665C38.3049 44.1665 38.7076 43.7637 38.7076 43.2668C38.7076 42.77 38.3049 42.3672 37.808 42.3672C37.3111 42.3672 36.9084 42.77 36.9084 43.2668Z" fill="#EA1D28"/>
<path fill-rule="evenodd" clip-rule="evenodd" d="M29.9103 44.3308C29.9103 44.8276 30.3131 45.2304 30.81 45.2304C31.3068 45.2304 31.7096 44.8276 31.7096 44.3308C31.7096 43.8339 31.3068 43.4312 30.81 43.4312C30.3131 43.4312 29.9103 43.8339 29.9103 44.3308Z" fill="#EA1D28"/>
<path fill-rule="evenodd" clip-rule="evenodd" d="M34.7052 44.666C34.7052 45.1629 35.108 45.5656 35.6049 45.5656C36.1017 45.5656 36.5045 45.1629 36.5045 44.666C36.5045 44.1691 36.1017 43.7664 35.6049 43.7664C35.108 43.7664 34.7052 44.1691 34.7052 44.666Z" fill="#EA1D28"/>
<path fill-rule="evenodd" clip-rule="evenodd" d="M32.3927 43.0564C32.3927 43.5532 32.7955 43.956 33.2924 43.956C33.7892 43.956 34.192 43.5532 34.192 43.0564C34.192 42.5595 33.7892 42.1567 33.2924 42.1567C32.7955 42.1567 32.3927 42.5595 32.3927 43.0564Z" fill="#EA1D28"/>
<path fill-rule="evenodd" clip-rule="evenodd" d="M34.7052 41.8159C34.7052 42.3128 35.108 42.7155 35.6049 42.7155C36.1017 42.7155 36.5045 42.3128 36.5045 41.8159C36.5045 41.319 36.1017 40.9163 35.6049 40.9163C35.108 40.9163 34.7052 41.319 34.7052 41.8159Z" fill="#EA1D28"/>
<path fill-rule="evenodd" clip-rule="evenodd" d="M32.3244 48.6899C32.3244 49.1868 32.7272 49.5896 33.224 49.5896C33.7209 49.5896 34.1237 49.1868 34.1237 48.6899C34.1237 48.1931 33.7209 47.7903 33.224 47.7903C32.7272 47.7903 32.3244 48.1931 32.3244 48.6899Z" fill="#EA1D28"/>
<path fill-rule="evenodd" clip-rule="evenodd" d="M29.9455 49.9306C29.9455 50.4275 30.3483 50.8303 30.8451 50.8303C31.342 50.8303 31.7448 50.4275 31.7448 49.9306C31.7448 49.4338 31.342 49.031 30.8451 49.031C30.3483 49.031 29.9455 49.4338 29.9455 49.9306Z" fill="#EA1D28"/>
<path fill-rule="evenodd" clip-rule="evenodd" d="M29.9455 47.114C29.9455 47.6109 30.3483 48.0136 30.8451 48.0136C31.342 48.0136 31.7448 47.6109 31.7448 47.114C31.7448 46.6171 31.342 46.2144 30.8451 46.2144C30.3483 46.2144 29.9455 46.6171 29.9455 47.114Z" fill="#EA1D28"/>
<path fill-rule="evenodd" clip-rule="evenodd" d="M32.3927 45.9402C32.3927 46.437 32.7955 46.8398 33.2924 46.8398C33.7892 46.8398 34.192 46.437 34.192 45.9402C34.192 45.4433 33.7892 45.0405 33.2924 45.0405C32.7955 45.0405 32.3927 45.4433 32.3927 45.9402Z" fill="#EA1D28"/>
<path fill-rule="evenodd" clip-rule="evenodd" d="M34.7052 47.4826C34.7052 47.9795 35.108 48.3823 35.6049 48.3823C36.1017 48.3823 36.5045 47.9795 36.5045 47.4826C36.5045 46.9858 36.1017 46.583 35.6049 46.583C35.108 46.583 34.7052 46.9858 34.7052 47.4826Z" fill="#EA1D28"/>
<path fill-rule="evenodd" clip-rule="evenodd" d="M32.2702 38.3817L32.3037 39.723C30.1052 37.2969 28.1345 34.7745 24.3567 33.0166C24.4808 33.0166 23.3576 35.1969 22.5795 36.0344C21.6024 37.0861 18.7658 37.5213 18.7568 37.4763C18.7568 37.4763 19.924 35.4504 20.6346 34.7602C21.4433 33.9749 23.7866 32.7148 23.7866 32.7148C23.2223 32.2657 22.528 31.8601 21.7747 31.4741C21.7747 31.4741 19.7309 33.4517 18.6227 33.8884C17.1745 34.459 13.4587 34.3914 13.4587 34.3914C13.4587 34.3914 15.5864 31.9887 16.8119 31.4741C17.9499 30.9962 20.9618 31.1249 20.9618 31.1249L17.5995 27.9034C17.5995 27.9034 16.2919 30.0483 15.5713 30.5352C14.5642 31.2156 11.7486 31.8765 11.7486 31.8765C11.7486 31.8765 13.049 29.3329 13.7605 28.6574C14.5666 27.892 16.7784 27.3832 16.7784 27.3832L15.0683 26.0084C15.228 25.9445 14.2754 27.6627 13.157 28.2885C12.2222 28.8116 9.5355 29.3951 9.5355 29.3951C9.5355 29.3951 10.8346 27.2845 11.5809 26.7125C12.4194 26.07 14.6324 25.6395 14.6324 25.6395L13.0899 24.3653C13.0899 24.3653 11.9905 25.8512 11.3798 26.3437C10.3254 27.1938 7.28089 27.2684 7.25532 27.1149C7.25532 27.1149 8.61694 25.1024 9.4349 24.6C10.3528 24.0362 12.7546 23.8958 12.7546 23.8958L12.5198 23.4599C12.6236 23.5464 9.66813 23.3939 8.06009 22.3534C7.2471 21.8273 5.77991 20.0061 5.77991 20.0061C5.7861 19.9937 8.96184 19.8332 10.072 20.5091C10.9789 21.0613 12.721 22.8563 12.721 22.8563C12.721 22.8563 12.1972 20.6662 12.2851 19.872C12.3878 18.9451 13.4587 17.3906 13.4587 17.3906C13.4587 17.3906 14.7786 19.5237 14.733 20.5426C14.6925 21.446 13.3581 23.2252 13.3581 23.2252L13.4587 23.7952L14.733 24.9689C14.733 24.9689 14.6047 23.1275 14.733 22.3534C14.891 21.3993 15.7725 19.302 15.7725 19.302C15.7725 19.302 16.949 21.5022 16.879 22.521C16.8133 23.477 15.4371 25.3712 15.4371 25.3712L17.1473 26.8802C17.1473 26.8802 16.9784 24.9478 17.1137 24.1641C17.2967 23.1044 18.1868 20.7438 18.1868 20.7438C18.1868 20.7438 19.1075 22.7433 19.0921 23.6276C19.0719 24.7931 17.7508 27.1484 17.7508 27.1484L21.2046 30.3005C21.2046 30.3005 20.4648 27.8504 20.2322 26.7796C19.9749 25.595 19.6286 22.521 19.6286 22.521C19.6286 22.521 21.6304 24.032 22.1771 25.3042C22.3968 25.8155 22.8248 27.7673 22.7806 28.3221C22.7203 29.0811 22.11 30.8034 22.11 30.8034L23.8872 31.91C23.8872 31.91 23.8655 30.5951 23.8201 30.0993C23.6479 28.2153 25.006 26.0329 25.1279 26.2766C25.2001 26.2766 26.0512 28.1468 25.9662 29.0262C25.8429 30.3019 24.7901 32.5086 24.7255 32.3794C28.3018 34.2104 30.2237 36.306 32.2702 38.3817Z" fill="#24B34B"/>
<path fill-rule="evenodd" clip-rule="evenodd" d="M22.1943 38.2811L22.1608 39.6224C24.3593 37.1963 26.33 34.6739 30.1079 32.916C29.9837 32.916 31.1069 35.0963 31.8851 35.9339C32.8621 36.9856 35.6987 37.4207 35.7077 37.3757C35.7077 37.3757 34.5406 35.3498 33.8299 34.6596C33.0212 33.8743 30.6779 32.6142 30.6779 32.6142C31.2422 32.1652 31.9365 31.7595 32.6898 31.3735C32.6898 31.3735 34.7337 33.3511 35.8418 33.7878C37.29 34.3584 41.0058 34.2908 41.0058 34.2908C41.0058 34.2908 38.8781 31.8881 37.6526 31.3735C36.5146 30.8957 33.5027 31.0243 33.5027 31.0243L36.8651 27.8028C36.8651 27.8028 38.1726 29.9477 38.8933 30.4346C39.9003 31.115 42.7159 31.7759 42.7159 31.7759C42.7159 31.7759 41.4155 29.2323 40.704 28.5568C39.8979 27.7914 37.6861 27.2826 37.6861 27.2826L39.3962 25.9078C39.2365 25.8439 40.1891 27.5621 41.3076 28.188C42.2423 28.711 44.929 29.2945 44.929 29.2945C44.929 29.2945 43.6299 27.1839 42.8836 26.6119C42.0451 25.9694 39.8321 25.5389 39.8321 25.5389L41.3746 24.2647C41.3746 24.2647 42.474 25.7506 43.0848 26.2431C44.1391 27.0933 47.1836 27.1678 47.2092 27.0143C47.2092 27.0143 45.8476 25.0019 45.0296 24.4994C44.1118 23.9357 41.7099 23.7953 41.7099 23.7953L41.9447 23.3593C41.8409 23.4458 44.7964 23.2933 46.4044 22.2528C47.2174 21.7267 48.6846 19.9055 48.6846 19.9055C48.6784 19.8931 45.5027 19.7326 44.3925 20.4085C43.4856 20.9607 41.7435 22.7558 41.7435 22.7558C41.7435 22.7558 42.2673 20.5656 42.1794 19.7714C42.0767 18.8445 41.0058 17.29 41.0058 17.29C41.0058 17.29 39.686 19.4231 39.7316 20.4421C39.772 21.3455 41.1064 23.1246 41.1064 23.1246L41.0058 23.6947L39.7316 24.8683C39.7316 24.8683 39.8598 23.0269 39.7316 22.2528C39.5735 21.2987 38.6921 19.2014 38.6921 19.2014C38.6921 19.2014 37.5155 21.4017 37.5855 22.4204C37.6512 23.3764 39.0274 25.2707 39.0274 25.2707L37.3172 26.7796C37.3172 26.7796 37.4861 24.8472 37.3508 24.0635C37.1678 23.0038 36.2778 20.6432 36.2778 20.6432C36.2778 20.6432 35.357 22.6427 35.3724 23.527C35.3926 24.6925 36.7137 27.0479 36.7137 27.0479L33.2599 30.1999C33.2599 30.1999 33.9997 27.7498 34.2323 26.679C34.4896 25.4944 34.8359 22.4204 34.8359 22.4204C34.8359 22.4204 32.8341 23.9314 32.2874 25.2036C32.0677 25.7149 31.6397 27.6667 31.6839 28.2215C31.7442 28.9805 32.3545 30.7029 32.3545 30.7029L30.5773 31.8094C30.5773 31.8094 30.599 30.4946 30.6444 29.9987C30.8166 28.1147 29.4585 25.9323 29.3366 26.176C29.2644 26.176 28.4133 28.0462 28.4983 28.9257C28.6216 30.2013 29.6744 32.408 29.739 32.2789C26.1627 34.1098 24.2409 36.2054 22.1943 38.2811Z" fill="#24B34B"/>
<path fill-rule="evenodd" clip-rule="evenodd" d="M7.4074 49.4604L21.3029 21.5869C21.968 20.6404 22.7186 19.7505 24.136 19.3033C20.7077 18.0146 19.6084 16.6078 19.5573 15.1588C19.4539 12.2259 22.0377 10.7205 22.9892 8.08678L23.3265 6.40766H24.3383L24.4058 8.62411C23.9046 10.2163 22.2999 11.3774 22.3822 13.7958C22.4499 15.7884 24.9163 17.6143 26.5643 17.7585L26.4294 13.46L24.0011 13.863C25.4424 10.7872 26.6263 7.41249 27.3063 3.45239L27.3063 55.1694L26.4294 55.2366V54.0948L25.0803 54.7665L25.1478 43.8186L26.6318 42.5424L26.5643 21.5198C25.6891 21.6095 24.8315 21.6423 23.4614 23.3332L8.21685 50.2664C7.69543 50.4988 7.2984 50.4835 7.4074 49.4604Z" fill="#3598D4"/>
<path fill-rule="evenodd" clip-rule="evenodd" d="M47.2061 49.4604L33.3106 21.5869C32.6455 20.6404 31.895 19.7505 30.4776 19.3033C33.9059 18.0146 35.0052 16.6078 35.0563 15.1588C35.1597 12.2258 32.5758 10.7205 31.6243 8.08678L31.287 6.40766H30.2752L30.2078 8.62409C30.709 10.2163 32.3136 11.3774 32.2314 13.7958C32.1636 15.7884 29.6973 17.6143 28.0492 17.7585L28.1842 13.46L30.6125 13.863C29.1712 10.7872 27.9873 7.41248 27.3073 3.45239V55.1694L28.1842 55.2366V54.0948L29.5332 54.7665L29.4658 43.8186L27.9818 42.5424L28.0492 21.5198C28.9245 21.6095 29.7821 21.6423 31.1521 23.3332L46.3967 50.2664C46.9181 50.4988 47.3151 50.4835 47.2061 49.4604Z" fill="white"/>
</g>
<defs>
<clipPath id="clip0_659_28921">
<rect width="53.112" height="64" fill="white" transform="translate(0.748657)"/>
</clipPath>
</defs>
</svg>

<svg width="54" height="64" fill="none" xmlns="http://www.w3.org/2000/svg"><g clip-path="url(#a)" fill-rule="evenodd" clip-rule="evenodd"><path d="M53.863.266H27.307V64c1.144-2.43 2.235-4.89 5.843-5.842h14.87c2.513-.392 5.176-2.848 5.843-5.843V.265Z" fill="#3598D4"/><path d="M.75.266h26.557V64c-1.144-2.43-2.235-4.89-5.843-5.842H6.593C4.08 57.766 1.417 55.31.75 52.315V.265Z" fill="#fff"/><path d="M17.054 43.286a.9.9 0 1 1-1.8 0 .9.9 0 0 1 1.8 0ZM24.05 44.35a.9.9 0 1 1-1.8 0 .9.9 0 0 1 1.8 0ZM19.255 44.685a.9.9 0 1 1-1.8 0 .9.9 0 0 1 1.8 0ZM21.57 43.076a.9.9 0 1 1-1.8 0 .9.9 0 0 1 1.8 0ZM19.177 41.835a.9.9 0 1 1-1.8 0 .9.9 0 0 1 1.8 0ZM21.636 48.71a.9.9 0 1 1-1.8 0 .9.9 0 0 1 1.8 0ZM24.015 49.95a.9.9 0 1 1-1.8 0 .9.9 0 0 1 1.8 0ZM24.015 47.133a.9.9 0 1 1-1.8 0 .9.9 0 0 1 1.8 0ZM21.57 45.96a.9.9 0 1 1-1.8 0 .9.9 0 0 1 1.8 0ZM19.255 47.502a.9.9 0 1 1-1.8 0 .9.9 0 0 1 1.8 0ZM36.908 43.267a.9.9 0 1 0 1.8 0 .9.9 0 0 0-1.8 0ZM29.91 44.33a.9.9 0 1 0 1.8 0 .9.9 0 0 0-1.8 0ZM34.705 44.666a.9.9 0 1 0 1.8 0 .9.9 0 0 0-1.8 0ZM32.393 43.056a.9.9 0 1 0 1.799 0 .9.9 0 0 0-1.8 0ZM34.705 41.816a.9.9 0 1 0 1.8 0 .9.9 0 0 0-1.8 0ZM32.324 48.69a.9.9 0 1 0 1.8 0 .9.9 0 0 0-1.8 0ZM29.945 49.93a.9.9 0 1 0 1.8 0 .9.9 0 0 0-1.8 0ZM29.945 47.114a.9.9 0 1 0 1.8 0 .9.9 0 0 0-1.8 0ZM32.393 45.94a.9.9 0 1 0 1.799 0 .9.9 0 0 0-1.8 0ZM34.705 47.483a.9.9 0 1 0 1.8 0 .9.9 0 0 0-1.8 0Z" fill="#EA1D28"/><path d="m32.27 38.382.034 1.341c-2.199-2.426-4.17-4.948-7.947-6.706.124 0-1 2.18-1.777 3.017-.978 1.052-3.814 1.487-3.823 1.442 0 0 1.167-2.026 1.878-2.716.808-.785 3.152-2.045 3.152-2.045-.565-.45-1.259-.855-2.012-1.24 0 0-2.044 1.977-3.152 2.413-1.449.571-5.164.503-5.164.503s2.127-2.402 3.353-2.917c1.138-.478 4.15-.35 4.15-.35l-3.363-3.22s-1.307 2.144-2.028 2.631c-1.007.68-3.822 1.341-3.822 1.341s1.3-2.543 2.011-3.219c.807-.765 3.018-1.274 3.018-1.274l-1.71-1.375c.16-.063-.793 1.655-1.911 2.28-.935.524-3.621 1.107-3.621 1.107s1.299-2.11 2.045-2.683c.838-.642 3.051-1.072 3.051-1.072l-1.542-1.275s-1.1 1.486-1.71 1.979c-1.055.85-4.1.924-4.125.77 0 0 1.362-2.012 2.18-2.514.918-.564 3.32-.704 3.32-.704l-.235-.436c.104.086-2.852-.066-4.46-1.107-.813-.526-2.28-2.347-2.28-2.347.006-.012 3.182-.173 4.292.503.907.552 2.649 2.347 2.649 2.347s-.524-2.19-.436-2.984c.103-.927 1.174-2.481 1.174-2.481s1.32 2.133 1.274 3.152c-.04.903-1.375 2.682-1.375 2.682l.1.57 1.275 1.174s-.128-1.841 0-2.616c.158-.954 1.04-3.051 1.04-3.051s1.176 2.2 1.106 3.219c-.066.956-1.442 2.85-1.442 2.85l1.71 1.51s-.169-1.933-.033-2.717c.183-1.06 1.073-3.42 1.073-3.42s.92 2 .905 2.884c-.02 1.165-1.341 3.52-1.341 3.52l3.454 3.152s-.74-2.45-.973-3.52c-.257-1.185-.603-4.259-.603-4.259s2.001 1.511 2.548 2.783c.22.512.648 2.463.604 3.018-.06.76-.671 2.481-.671 2.481l1.777 1.107s-.021-1.315-.067-1.81c-.172-1.885 1.186-4.067 1.308-3.823.072 0 .923 1.87.838 2.75-.123 1.275-1.176 3.482-1.24 3.352 3.576 1.831 5.498 3.927 7.544 6.003Z" fill="#24B34B"/><path d="m22.194 38.281-.033 1.341c2.198-2.426 4.169-4.948 7.947-6.706-.124 0 .999 2.18 1.777 3.018.977 1.052 3.814 1.487 3.823 1.442 0 0-1.167-2.026-1.878-2.716-.809-.786-3.152-2.046-3.152-2.046.564-.449 1.258-.854 2.012-1.24 0 0 2.044 1.977 3.152 2.414 1.448.57 5.164.503 5.164.503s-2.128-2.403-3.353-2.917c-1.138-.478-4.15-.35-4.15-.35l3.362-3.221s1.308 2.145 2.028 2.632c1.007.68 3.823 1.34 3.823 1.34s-1.3-2.543-2.012-3.218c-.806-.766-3.018-1.274-3.018-1.274l1.71-1.375c-.16-.064.793 1.654 1.912 2.28.934.523 3.621 1.107 3.621 1.107s-1.3-2.111-2.045-2.683c-.839-.643-3.052-1.073-3.052-1.073l1.543-1.274s1.099 1.486 1.71 1.978c1.054.85 4.099.925 4.124.771 0 0-1.361-2.012-2.18-2.515-.917-.563-3.32-.704-3.32-.704l.236-.436c-.104.087 2.851-.066 4.46-1.106.812-.526 2.28-2.348 2.28-2.348-.007-.012-3.182-.172-4.293.503-.906.553-2.649 2.348-2.649 2.348s.524-2.19.436-2.985c-.102-.927-1.173-2.481-1.173-2.481s-1.32 2.133-1.274 3.152c.04.904 1.374 2.683 1.374 2.683l-.1.57-1.274 1.173s.128-1.841 0-2.615c-.158-.954-1.04-3.052-1.04-3.052s-1.176 2.2-1.106 3.22c.065.955 1.441 2.85 1.441 2.85l-1.71 1.509s.17-1.933.034-2.716c-.183-1.06-1.073-3.42-1.073-3.42s-.921 1.999-.906 2.883c.02 1.165 1.342 3.52 1.342 3.52L33.26 30.2s.74-2.45.972-3.521c.258-1.185.604-4.259.604-4.259s-2.002 1.511-2.549 2.784c-.22.51-.647 2.463-.603 3.017.06.76.67 2.482.67 2.482l-1.777 1.106s.022-1.314.067-1.81c.173-1.884-1.185-4.067-1.307-3.823-.073 0-.924 1.87-.839 2.75.124 1.275 1.176 3.482 1.241 3.353-3.576 1.83-5.498 3.926-7.545 6.002Z" fill="#24B34B"/><path d="m7.407 49.46 13.896-27.873c.665-.947 1.416-1.837 2.833-2.284-3.428-1.288-4.528-2.695-4.579-4.144-.103-2.933 2.48-4.439 3.432-7.072l.337-1.68h1.012l.068 2.217c-.501 1.592-2.106 2.753-2.024 5.172.068 1.992 2.534 3.818 4.182 3.963l-.135-4.299-2.428.403c1.441-3.076 2.625-6.45 3.305-10.41v51.716l-.877.068v-1.142l-1.349.672.068-10.948 1.484-1.277-.068-21.022c-.875.09-1.733.122-3.103 1.813L8.217 50.266c-.522.233-.919.218-.81-.806Z" fill="#3598D4"/><path d="M47.206 49.46 33.311 21.587c-.666-.947-1.416-1.837-2.833-2.284 3.428-1.288 4.527-2.695 4.578-4.144.104-2.933-2.48-4.439-3.432-7.072l-.337-1.68h-1.012l-.067 2.217c.501 1.592 2.106 2.753 2.023 5.172-.067 1.992-2.534 3.818-4.182 3.963l.135-4.299 2.428.403c-1.44-3.076-2.625-6.45-3.305-10.41v51.716l.877.068v-1.142l1.35.672-.068-10.948-1.484-1.277.067-21.022c.875.09 1.733.122 3.103 1.813l15.245 26.933c.521.233.918.218.81-.806Z" fill="#fff"/></g><defs><clipPath id="a"><path fill="#fff" transform="translate(.749)" d="M0 0h53.112v64H0z"/></clipPath></defs></svg>
